X: 6888
T: Chasing Daylight
R: reel
M: 4/4
K: Bminor
|:B3B- Bdde|f3f- f2ed|B3B- Bdde|f2aA ab f/e/d|
B3B- Bdde|f3f- f2ed|edfc- ceB2-|BAAA Bddc:|
ABBA effe|dBBA BBAG|AAAG Afed|e2ed efdc|
ABBA effe|dBBA BBAG|AAAG Afed|e4- e2dc:|

